packages/symbols/svgs/solid/clock-rotate-left-solid.svg

<svg width="16" height="16" viewBox="0 0 16 16" fill="none" xmlns="http://www.w3.org/2000/svg">
<path fill-rule="evenodd" clip-rule="evenodd" d="M8.00001 0.999994C6.12701 0.999994 4.35001 1.75899 3.05201 3.05199L0.900012 0.899994L0.200012 7.29999L6.60001 6.59999L4.46501 4.46499C5.39301 3.54199 6.66201 2.99999 8.00001 2.99999C10.757 2.99999 13 5.24299 13 7.99999C13 9.05999 12.673 10.072 12.053 10.928L13.674 12.101C14.541 10.901 15 9.48299 15 7.99999C15 4.13999 11.859 0.999994 8.00001 0.999994ZM2.50199 12.333C1.77599 11.413 1.28998 10.317 1.09698 9.165L3.06998 8.834C3.20798 9.656 3.55398 10.438 4.07298 11.094L2.50199 12.333ZM6.83397 14.903C5.76397 14.723 4.73397 14.288 3.85797 13.644L5.04397 12.033C5.66797 12.492 6.40197 12.803 7.16597 12.931L6.83397 14.903ZM8.83502 12.93L9.16502 14.903C10.287 14.715 11.358 14.248 12.263 13.552L11.044 11.966C10.398 12.463 9.63402 12.796 8.83502 12.93ZM9 5V4H7V5V7.77778C7 8.02482 7.09144 8.26312 7.25671 8.44674L9.25671 10.669L9.92567 11.4123L11.4123 10.0743L10.7433 9.33104L9 7.39404V5Z" fill="black"/>
</svg>

<svg width="16" height="16" viewBox="0 0 16 16" xmlns="http://www.w3.org/2000/svg"><path fill-rule="evenodd" clip-rule="evenodd" d="M8 1c-1.873 0-3.65.759-4.948 2.052L.9.9.2 7.3l6.4-.7-2.135-2.135A5.023 5.023 0 0 1 8 3c2.757 0 5 2.243 5 5 0 1.06-.327 2.072-.947 2.928l1.621 1.173A6.96 6.96 0 0 0 15 8c0-3.86-3.141-7-7-7ZM2.502 12.333a6.996 6.996 0 0 1-1.405-3.168l1.973-.331a4.982 4.982 0 0 0 1.003 2.26l-1.571 1.239Zm4.332 2.57a7.015 7.015 0 0 1-2.976-1.259l1.186-1.611c.624.459 1.358.77 2.122.898l-.332 1.972Zm2.001-1.973.33 1.973a6.997 6.997 0 0 0 3.098-1.351l-1.219-1.586a4.99 4.99 0 0 1-2.209.964ZM9 5V4H7v3.778a1 1 0 0 0 .257.669l2 2.222.669.743 1.486-1.338-.669-.743L9 7.394V5Z"/></svg>
